public/img/icons/i-ico-big.svg

<svg width="22" height="22" viewBox="0 0 22 22" fill="none" xmlns="http://www.w3.org/2000/svg">
<path fill-rule="evenodd" clip-rule="evenodd" d="M9.69336 13.7695H11.7934V15.8695H9.69336V13.7695ZM9.69336 5.37109H11.7934V11.6711H9.69336V5.37109ZM10.7336 0.121094C4.93764 0.121094 0.244141 4.82509 0.244141 10.6211C0.244141 16.4171 4.93764 21.1211 10.7336 21.1211C16.5401 21.1211 21.2441 16.4171 21.2441 10.6211C21.2441 4.82509 16.5401 0.121094 10.7336 0.121094ZM10.7457 19.0227C6.1047 19.0227 2.3457 15.2637 2.3457 10.6227C2.3457 5.98166 6.1047 2.22266 10.7457 2.22266C15.3867 2.22266 19.1457 5.98166 19.1457 10.6227C19.1457 15.2637 15.3867 19.0227 10.7457 19.0227Z" fill="#232340"/>
</svg>

<svg width="22" height="22" fill="none" xmlns="http://www.w3.org/2000/svg"><path fill-rule="evenodd" clip-rule="evenodd" d="M9.693 13.77h2.1v2.1h-2.1v-2.1zm0-8.399h2.1v6.3h-2.1v-6.3zm1.04-5.25C4.939.121.245 4.825.245 10.621s4.694 10.5 10.49 10.5c5.806 0 10.51-4.704 10.51-10.5S16.54.121 10.734.121zm.013 18.902a8.398 8.398 0 0 1-8.4-8.4c0-4.641 3.759-8.4 8.4-8.4 4.64 0 8.4 3.759 8.4 8.4 0 4.64-3.76 8.4-8.4 8.4z" fill="#232340"/></svg>
